mobile/24/svg/fingerprinter-24.svg

<svg width="24" height="24" viewBox="0 0 24 24" fill="none" xmlns="http://www.w3.org/2000/svg">
<path d="M10.439 2.28406C14.262 1.32606 18.517 2.90206 20.555 6.04306C23.091 9.94606 22.053 15.1931 17.63 20.8171L16.255 19.7351C20.178 14.7471 21.184 10.2241 19.088 6.99706C17.443 4.46406 13.986 3.19506 10.867 3.98206C7.90195 4.73306 6.04095 7.14206 5.76395 10.5891L5.73095 11.0001H3.97595L4.02095 10.4481C4.36295 6.20806 6.70195 3.23206 10.439 2.28406Z" fill="black"/>
<path d="M11.253 21.1731L10.362 19.6671L11.115 19.2221C11.356 19.0791 11.587 18.9291 11.805 18.7741C15.925 15.8391 16.112 10.6671 16.113 10.6151L16.124 10.5001C16.356 9.05505 15.184 7.66105 13.51 7.39205C12.54 7.23405 11.514 7.49505 10.816 8.06205C10.489 8.32905 10.092 8.78105 10.062 9.42505V11.0001C10.062 13.2061 8.268 15.0001 6.062 15.0001H2V13.2501H6.062C7.302 13.2501 8.312 12.2401 8.312 11.0001V9.38405C8.36 8.33605 8.856 7.39805 9.711 6.70305C10.802 5.81605 12.325 5.43105 13.787 5.66205C16.394 6.08205 18.21 8.34405 17.86 10.7211C17.83 11.3941 17.442 16.9081 12.819 20.2001C12.559 20.3841 12.29 20.5591 12.006 20.7271L11.253 21.1731Z" fill="black"/>
<path d="M12.062 10V11.625C12.062 14.589 9.651 17 6.687 17H2V18.75H6.688C10.617 18.75 13.813 15.554 13.813 11.625V10H12.062Z" fill="black"/>
</svg>

<svg width="24" height="24" fill="none" xmlns="http://www.w3.org/2000/svg"><path d="M10.439 2.284c3.823-.958 8.078.618 10.116 3.76 2.536 3.902 1.498 9.15-2.925 14.773l-1.375-1.082c3.923-4.988 4.929-9.51 2.833-12.738-1.645-2.533-5.102-3.802-8.221-3.015-2.965.751-4.826 3.16-5.103 6.607L5.73 11H3.976l.045-.552c.342-4.24 2.681-7.216 6.418-8.164z" fill="#000"/><path d="m11.253 21.173-.891-1.506.753-.445a9.99 9.99 0 0 0 .69-.448c4.12-2.935 4.307-8.107 4.308-8.159l.011-.115c.232-1.445-.94-2.839-2.614-3.108-.97-.158-1.996.103-2.694.67-.327.267-.724.72-.754 1.363V11c0 2.206-1.794 4-4 4H2v-1.75h4.062c1.24 0 2.25-1.01 2.25-2.25V9.384c.048-1.048.544-1.986 1.399-2.681 1.091-.887 2.614-1.272 4.076-1.041 2.607.42 4.423 2.682 4.073 5.06-.03.672-.418 6.186-5.041 9.478-.26.184-.529.36-.813.527l-.753.446z" fill="#000"/><path d="M12.062 10v1.625A5.38 5.38 0 0 1 6.687 17H2v1.75h4.688a7.133 7.133 0 0 0 7.125-7.125V10h-1.751z" fill="#000"/></svg>
